src/pos-icons/palette-swatch.svg

<svg height="24" viewBox="0 0 24 24" width="24" xmlns="http://www.w3.org/2000/svg"><path d="m2.53 19.65 1.34.56v-9.03l-2.43 5.86c-.41 1.02.06 2.19 1.09 2.61m19.5-3.7-4.96-11.95c-.31-.77-1.04-1.23-1.81-1.25-.26 0-.53.04-.79.15l-7.37 3.05c-.75.31-1.21 1.05-1.23 1.8-.01.25.04.54.13.8l5 11.95c.29.78 1.03 1.24 1.81 1.25.26 0 .52-.05.77-.15l7.36-3.05c1.02-.42 1.51-1.59 1.09-2.6m-14.15-7.2a1 1 0 0 1 -1-1 1 1 0 0 1 1-1c.55 0 1 .45 1 1s-.45 1-1 1m-2 11a2 2 0 0 0 2 2h1.45l-3.45-8.34z"/></svg>

<?xml version="1.0" encoding="UTF-8"?><!DOCTYPE svg PUBLIC "-//W3C//DTD SVG 1.1//EN" "http://www.w3.org/Graphics/SVG/1.1/DTD/svg11.dtd"><svg xmlns="http://www.w3.org/2000/svg" xmlns:xlink="http://www.w3.org/1999/xlink" version="1.1" id="mdi-palette-swatch" width="24" height="24" viewBox="0 0 24 24"><path d="M2.53,19.65L3.87,20.21V11.18L1.44,17.04C1.03,18.06 1.5,19.23 2.53,19.65M22.03,15.95L17.07,4C16.76,3.23 16.03,2.77 15.26,2.75C15,2.75 14.73,2.79 14.47,2.9L7.1,5.95C6.35,6.26 5.89,7 5.87,7.75C5.86,8 5.91,8.29 6,8.55L11,20.5C11.29,21.28 12.03,21.74 12.81,21.75C13.07,21.75 13.33,21.7 13.58,21.6L20.94,18.55C21.96,18.13 22.45,16.96 22.03,15.95M7.88,8.75A1,1 0 0,1 6.88,7.75A1,1 0 0,1 7.88,6.75C8.43,6.75 8.88,7.2 8.88,7.75C8.88,8.3 8.43,8.75 7.88,8.75M5.88,19.75A2,2 0 0,0 7.88,21.75H9.33L5.88,13.41V19.75Z" /></svg>
